X:1
T: samA'I bayyAtI (incomplete)
M:10/8
L:1/16
K:C_B_E
P:A
(AB|c4A2) BAG2 (AGFE) F4AB|c4A2 BAG2 AGFE F4 {G(F}E)F|
G4G2{A} FED2 (EDEFG4) AB | cdcB BA (AGGF FEED) D4 {G(A}B)A|
P:Taslim
G4 {F(G}A)G F4 {E(F}G)AGA E4 {D(E}F)E|D4 {E(F}E)D C4 {C(D}E)DEFG4 A(B | cdcB) BA (AGGF FEED)D4 z2|
P:B
W:not yet finished 3 more parts

$$$

